meat/img/sprite/telegram.svg

<svg width="29" height="24" viewBox="0 0 29 24" fill="none" xmlns="http://www.w3.org/2000/svg">
<path d="M27.866 0.126953C27.7673 0.126953 27.6593 0.145736 27.556 0.183306L0.881457 10.3178C0.13006 10.6042 0.148844 11.675 0.909633 11.9333L7.09457 14.0231L10.8234 21.4854C10.8234 21.4854 10.8234 21.4901 10.8281 21.4901L10.8375 21.5089H10.8421C10.9079 21.6451 11.0488 21.7343 11.1991 21.7343C11.2883 21.7343 11.3775 21.7061 11.4574 21.6404L14.9513 18.677L11.0488 15.7184L11.354 19.6069L8.5504 13.8024L23.4562 4.85136L11.0488 15.7231L20.7042 23.0539C21.0283 23.2981 21.3993 23.4108 21.7609 23.4108C22.5264 23.4108 23.2637 22.9083 23.4703 22.0771L28.6972 1.19299C28.8381 0.629444 28.3966 0.126953 27.866 0.126953Z" fill="#ED3F5E"/>
</svg>

<svg width="29" height="24" fill="none" xmlns="http://www.w3.org/2000/svg"><path d="M27.866.127a.922.922 0 0 0-.31.056L.881 10.318c-.75.286-.732 1.357.029 1.615l6.185 2.09 3.728 7.462s0 .005.005.005l.01.019h.004a.4.4 0 0 0 .615.131l3.494-2.963-3.902-2.959.305 3.889-2.804-5.805 14.906-8.95L11.05 15.722l9.655 7.33a1.755 1.755 0 0 0 2.766-.977l5.227-20.883a.86.86 0 0 0-.831-1.066z" fill="#ED3F5E"/></svg>
